world_stage/static/flags/ARE/square.svg

<svg height="800" viewBox="0 0 800.00003 800" width="800" xmlns="http://www.w3.org/2000/svg"><g stroke-width=".923983"><path d="m225 266.66799h575v-266.66799h-575z" fill="#00732f"/><path d="m225 533.33334h575v-266.66666h-575z" fill="#fff"/><path d="m225 800h575v-266.66666h-575z"/></g><path d="m0 800h225v-799.99998h-225z" fill="#f00" stroke-width="1.06"/></svg>

<?xml version="1.0" encoding="UTF-8" standalone="no"?>
<svg
   height="800"
   viewBox="0 0 800.00003 800"
   width="800"
   version="1.1"
   id="svg4"
   sodipodi:docname="rect copy.svg"
   inkscape:version="1.4 (e7c3feb1, 2024-10-09)"
   xmlns:inkscape="http://www.inkscape.org/namespaces/inkscape"
   xmlns:sodipodi="http://sodipodi.sourceforge.net/DTD/sodipodi-0.dtd"
   xmlns="http://www.w3.org/2000/svg"
   xmlns:svg="http://www.w3.org/2000/svg">
  <defs
     id="defs4" />
  <sodipodi:namedview
     id="namedview4"
     pagecolor="#ffffff"
     bordercolor="#000000"
     borderopacity="0.25"
     inkscape:showpageshadow="2"
     inkscape:pageopacity="0.0"
     inkscape:pagecheckerboard="0"
     inkscape:deskcolor="#d1d1d1"
     inkscape:current-layer="svg4" />
  <path
     d="M 225,266.66799 H 800 V 0 H 225 Z"
     fill="#00732f"
     id="path1"
     style="stroke-width:0.923983" />
  <path
     d="M 225,533.33334 H 800 V 266.66668 H 225 Z"
     fill="#ffffff"
     id="path2"
     style="stroke-width:0.923983" />
  <path
     d="M 225,800 H 800 V 533.33334 H 225 Z"
     id="path3"
     style="stroke-width:0.923983" />
  <path
     d="M 0,800 H 225 V 2e-5 H 0 Z"
     fill="#ff0000"
     id="path4"
     style="stroke-width:1.06" />
</svg>
